aliba_games/img/icon-depay.svg

<svg width="65" height="16" viewBox="0 0 65 16" fill="none" xmlns="http://www.w3.org/2000/svg">
<g style="mix-blend-mode:luminosity">
<path d="M7 14C10.866 14 14 10.866 14 7C14 3.13401 10.866 0 7 0C3.13401 0 0 3.13401 0 7C0 10.866 3.13401 14 7 14Z" fill="white"/>
<path fill-rule="evenodd" clip-rule="evenodd" d="M3.59639 6.83282C2.91133 6.10188 2.59937 5.4321 2.83553 5.02841C3.09186 4.59154 3.9321 4.56324 5.02216 4.87519C5.0837 4.52179 5.16658 4.17243 5.27036 3.82904C3.9334 3.50082 2.86806 3.6189 2.50178 4.24315C2.13062 4.87584 2.56359 5.88166 3.52971 6.90211C3.55118 6.87869 3.57395 6.85559 3.59639 6.83282Z" fill="url(#paint0_linear_152_1814)"/>
<path opacity="0.3" fill-rule="evenodd" clip-rule="evenodd" d="M5.02284 4.87469C5.08438 4.52129 5.16727 4.17193 5.27104 3.82855C5.12596 3.7932 4.98435 3.76295 4.84621 3.73779C4.73533 4.07373 4.64559 4.41629 4.57751 4.76344C4.72043 4.7938 4.86887 4.83088 5.02284 4.87469Z" fill="#231F20"/>
<path opacity="0.3" fill-rule="evenodd" clip-rule="evenodd" d="M3.53042 6.90158C3.55221 6.87881 3.57401 6.85571 3.59548 6.83294C3.56685 6.80204 3.53887 6.77179 3.51155 6.74121C3.48845 6.76366 3.46568 6.78643 3.44324 6.80887C3.47251 6.83977 3.50114 6.87068 3.53042 6.90158Z" fill="#231F20"/>
<path fill-rule="evenodd" clip-rule="evenodd" d="M9.73606 7.65622C10.5122 8.43985 10.8804 9.16883 10.6287 9.59821C10.401 9.98433 9.7198 10.0513 8.81256 9.84641C8.80215 9.88349 8.79174 9.92025 8.78003 9.95669C10.1082 10.2794 11.1654 10.1593 11.5297 9.53803C11.8941 8.91672 11.4767 7.92003 10.5317 6.91064C10.2817 7.17489 10.016 7.42386 9.73606 7.65622Z" fill="url(#paint1_linear_152_1814)"/>
<path opacity="0.3" fill-rule="evenodd" clip-rule="evenodd" d="M8.81256 9.84668C8.80215 9.88376 8.79174 9.92052 8.78003 9.95695L8.82102 9.96639C8.8324 9.92995 8.84314 9.8932 8.85355 9.85611L8.81256 9.84668Z" fill="#231F20"/>
<path opacity="0.3" fill-rule="evenodd" clip-rule="evenodd" d="M10.5327 6.91064C10.2824 7.17491 10.0163 7.42389 9.73608 7.65621C9.82999 7.75119 9.91771 7.84499 9.99925 7.93758C10.2774 7.70773 10.5407 7.46056 10.7878 7.19755C10.7077 7.10213 10.6227 7.0065 10.5327 6.91064Z" fill="#231F20"/>
<path fill-rule="evenodd" clip-rule="evenodd" d="M5.18324 9.73206C5.18309 9.72979 5.18309 9.7275 5.18324 9.72523C5.17283 9.68619 5.16307 9.64683 5.15298 9.60715C5.15298 9.60227 5.15071 9.59771 5.14973 9.59283C5.13997 9.55315 5.13054 9.51346 5.12143 9.47313L5.11948 9.46597C5.07914 9.28923 5.04293 9.10663 5.01083 8.91817C3.95037 9.20866 3.13746 9.17093 2.88699 8.74154C2.53632 8.1404 3.39932 6.95568 4.896 5.85813C4.90023 5.80967 4.90478 5.76055 4.90966 5.71338C3.03207 7.06985 1.98202 8.67355 2.49728 9.5577C2.86096 10.1816 3.92142 10.3036 5.25448 9.98058C5.22845 9.89991 5.20536 9.81664 5.18324 9.73206Z" fill="url(#paint2_linear_152_1814)"/>
<path opacity="0.3" fill-rule="evenodd" clip-rule="evenodd" d="M5.1832 9.73234C5.18305 9.73007 5.18305 9.72779 5.1832 9.72551C5.17279 9.68648 5.16303 9.64712 5.15295 9.60743C5.15295 9.60255 5.15067 9.598 5.1497 9.59312C5.13994 9.55343 5.1305 9.51375 5.1214 9.47341L5.11944 9.46625C5.07911 9.28951 5.04289 9.10691 5.0108 8.91846C4.85596 8.96075 4.70632 8.99588 4.56287 9.02418C4.62863 9.37813 4.71641 9.72763 4.8257 10.0706C4.9645 10.0464 5.10687 10.0165 5.25281 9.98119C5.22842 9.90019 5.20532 9.81692 5.1832 9.73234Z" fill="#231F20"/>
<path opacity="0.3" fill-rule="evenodd" clip-rule="evenodd" d="M4.89434 5.85813C4.89857 5.80967 4.90313 5.76055 4.90801 5.71338C4.73105 5.84089 4.56189 5.97047 4.40055 6.10211C4.39697 6.15122 4.39372 6.19969 4.39111 6.25044C4.54964 6.11924 4.71738 5.98847 4.89434 5.85813Z" fill="#231F20"/>
<path fill-rule="evenodd" clip-rule="evenodd" d="M11.5379 4.28563C11.1729 3.65976 10.1066 3.53908 8.76672 3.86535C8.77583 3.8956 8.78462 3.92618 8.7934 3.95708C9.74164 3.7323 10.4579 3.79443 10.6899 4.19129C10.9999 4.72315 10.3617 5.71009 9.17595 6.6902C9.17595 6.77152 9.17822 6.85285 9.17822 6.93515C9.17822 6.98394 9.17822 7.03273 9.17822 7.08088C9.17822 7.09584 9.17822 7.1108 9.17822 7.12577C9.17822 7.1583 9.17822 7.1931 9.1766 7.22628C9.1766 7.2432 9.1766 7.25881 9.1766 7.2767C9.1766 7.30902 9.17562 7.3409 9.17367 7.37234L9.17172 7.42178L9.16781 7.51937C9.16781 7.53466 9.16619 7.54963 9.16554 7.56491C9.16391 7.59972 9.16196 7.63453 9.16001 7.66933C9.16001 7.68137 9.15838 7.69341 9.15773 7.70544C9.15513 7.7474 9.15253 7.78937 9.1496 7.83101V7.84467C9.14244 7.94204 9.13431 8.03843 9.1252 8.13385C11.0005 6.77608 12.0535 5.1701 11.5379 4.28563Z" fill="url(#paint3_linear_152_1814)"/>
<path opacity="0.3" fill-rule="evenodd" clip-rule="evenodd" d="M8.7934 3.95712L8.83504 3.94736C8.82593 3.91679 8.81649 3.88621 8.80674 3.85596C8.7934 3.85888 8.78006 3.86181 8.76672 3.86539C8.77583 3.89564 8.78461 3.92622 8.7934 3.95712Z" fill="#231F20"/>
<path opacity="0.3" fill-rule="evenodd" clip-rule="evenodd" d="M9.23971 6.63721L9.17465 6.69056C9.17465 6.77188 9.17692 6.8532 9.17692 6.9355C9.17692 6.9843 9.17692 7.03309 9.17692 7.08123C9.17692 7.0962 9.17692 7.11116 9.17692 7.12612C9.17692 7.15865 9.17692 7.19346 9.1753 7.22664C9.1753 7.24355 9.1753 7.25917 9.1753 7.27706C9.1753 7.30937 9.17432 7.34125 9.17237 7.3727L9.17042 7.42214L9.16651 7.51973C9.16651 7.53502 9.16489 7.54998 9.16424 7.56527C9.16261 7.60008 9.16066 7.63488 9.15871 7.66969C9.15871 7.68173 9.15708 7.69376 9.15643 7.7058C9.15383 7.74776 9.15123 7.78972 9.1483 7.83136V7.84502C9.14114 7.94239 9.13301 8.03879 9.1239 8.13421L9.18896 8.08574C9.22539 7.71523 9.24459 7.33073 9.24459 6.93583C9.24393 6.83531 9.24198 6.7361 9.23971 6.63721Z" fill="#231F20"/>
<path fill-rule="evenodd" clip-rule="evenodd" d="M7.01335 1.70215C5.81756 1.70215 4.84851 4.04426 4.84851 6.93547C4.84851 9.82668 5.81756 12.1691 7.01335 12.1691C8.20913 12.1691 9.17884 9.82603 9.17884 6.93547C9.17884 4.04491 8.20881 1.70215 7.01335 1.70215ZM7.52178 11.4837C6.66691 11.4837 5.97436 9.46138 5.97436 6.9667C5.97436 4.47202 6.66691 2.45 7.52178 2.45C8.37666 2.45 9.06921 4.47235 9.06921 6.9667C9.06921 9.46105 8.37633 11.4837 7.52178 11.4837Z" fill="url(#paint4_linear_152_1814)"/>
</g>
<path d="M23.8029 2.228C24.8296 2.228 25.7302 2.42867 26.5049 2.83C27.2889 3.23133 27.8909 3.80533 28.3109 4.552C28.7402 5.28933 28.9549 6.148 28.9549 7.128C28.9549 8.108 28.7402 8.96667 28.3109 9.704C27.8909 10.432 27.2889 10.9967 26.5049 11.398C25.7302 11.7993 24.8296 12 23.8029 12H20.3869V2.228H23.8029ZM23.7329 10.334C24.7596 10.334 25.5529 10.054 26.1129 9.494C26.6729 8.934 26.9529 8.14533 26.9529 7.128C26.9529 6.11067 26.6729 5.31733 26.1129 4.748C25.5529 4.16933 24.7596 3.88 23.7329 3.88H22.3469V10.334H23.7329ZM37.6321 7.954C37.6321 8.234 37.6134 8.486 37.5761 8.71H31.9061C31.9527 9.27 32.1487 9.70867 32.4941 10.026C32.8394 10.3433 33.2641 10.502 33.7681 10.502C34.4961 10.502 35.0141 10.1893 35.3221 9.564H37.4361C37.2121 10.3107 36.7827 10.9267 36.1481 11.412C35.5134 11.888 34.7341 12.126 33.8101 12.126C33.0634 12.126 32.3914 11.9627 31.7941 11.636C31.2061 11.3 30.7441 10.8287 30.4081 10.222C30.0814 9.61533 29.9181 8.91533 29.9181 8.122C29.9181 7.31933 30.0814 6.61467 30.4081 6.008C30.7347 5.40133 31.1921 4.93467 31.7801 4.608C32.3681 4.28133 33.0447 4.118 33.8101 4.118C34.5474 4.118 35.2054 4.27667 35.7841 4.594C36.3721 4.91133 36.8247 5.364 37.1421 5.952C37.4687 6.53067 37.6321 7.198 37.6321 7.954ZM35.6021 7.394C35.5927 6.89 35.4107 6.48867 35.0561 6.19C34.7014 5.882 34.2674 5.728 33.7541 5.728C33.2687 5.728 32.8581 5.87733 32.5221 6.176C32.1954 6.46533 31.9947 6.87133 31.9201 7.394H35.6021ZM46.1887 5.252C46.1887 5.77467 46.0627 6.26467 45.8107 6.722C45.568 7.17933 45.1807 7.548 44.6487 7.828C44.126 8.108 43.4633 8.248 42.6607 8.248H41.0227V12H39.0627V2.228H42.6607C43.4167 2.228 44.0607 2.35867 44.5927 2.62C45.1247 2.88133 45.5213 3.24067 45.7827 3.698C46.0533 4.15533 46.1887 4.67333 46.1887 5.252ZM42.5767 6.666C43.118 6.666 43.5193 6.54467 43.7807 6.302C44.042 6.05 44.1727 5.7 44.1727 5.252C44.1727 4.3 43.6407 3.824 42.5767 3.824H41.0227V6.666H42.5767ZM47.0763 8.094C47.0763 7.31 47.2303 6.61467 47.5383 6.008C47.8556 5.40133 48.2803 4.93467 48.8123 4.608C49.3536 4.28133 49.9556 4.118 50.6183 4.118C51.1969 4.118 51.7009 4.23467 52.1303 4.468C52.5689 4.70133 52.9189 4.99533 53.1803 5.35V4.244H55.1543V12H53.1803V10.866C52.9283 11.23 52.5783 11.5333 52.1303 11.776C51.6916 12.0093 51.1829 12.126 50.6043 12.126C49.9509 12.126 49.3536 11.958 48.8123 11.622C48.2803 11.286 47.8556 10.8147 47.5383 10.208C47.2303 9.592 47.0763 8.88733 47.0763 8.094ZM53.1803 8.122C53.1803 7.646 53.0869 7.24 52.9003 6.904C52.7136 6.55867 52.4616 6.29733 52.1443 6.12C51.8269 5.93333 51.4863 5.84 51.1223 5.84C50.7583 5.84 50.4223 5.92867 50.1143 6.106C49.8063 6.28333 49.5543 6.54467 49.3583 6.89C49.1716 7.226 49.0783 7.62733 49.0783 8.094C49.0783 8.56067 49.1716 8.97133 49.3583 9.326C49.5543 9.67133 49.8063 9.93733 50.1143 10.124C50.4316 10.3107 50.7676 10.404 51.1223 10.404C51.4863 10.404 51.8269 10.3153 52.1443 10.138C52.4616 9.95133 52.7136 9.69 52.9003 9.354C53.0869 9.00867 53.1803 8.598 53.1803 8.122ZM64.4885 4.244L59.6865 15.668H57.6005L59.2805 11.804L56.1725 4.244H58.3705L60.3725 9.662L62.4025 4.244H64.4885Z" fill="white"/>
<defs>
<linearGradient id="paint0_linear_152_1814" x1="1.80207" y1="2.8395" x2="8.9963" y2="9.83104" gradientUnits="userSpaceOnUse">
<stop stop-color="#70A1D4"/>
<stop offset="0.31" stop-color="#447FC2"/>
<stop offset="0.66" stop-color="#3E74AF"/>
<stop offset="1" stop-color="#265281"/>
</linearGradient>
<linearGradient id="paint1_linear_152_1814" x1="0.927796" y1="1.25999" x2="12.1068" y2="10.4466" gradientUnits="userSpaceOnUse">
<stop stop-color="#70A1D4"/>
<stop offset="0.31" stop-color="#447FC2"/>
<stop offset="0.83" stop-color="#3E74AF"/>
<stop offset="1" stop-color="#265281"/>
</linearGradient>
<linearGradient id="paint2_linear_152_1814" x1="12.8755" y1="3.44185" x2="1.61346" y2="9.80623" gradientUnits="userSpaceOnUse">
<stop offset="0.07" stop-color="#FDE976"/>
<stop offset="0.58" stop-color="#FFE73F"/>
<stop offset="1" stop-color="#BBA312"/>
</linearGradient>
<linearGradient id="paint3_linear_152_1814" x1="13.2285" y1="2.21611" x2="5.78511" y2="8.85736" gradientUnits="userSpaceOnUse">
<stop offset="0.31" stop-color="#FDE976"/>
<stop offset="0.58" stop-color="#FFE73F"/>
<stop offset="1" stop-color="#BBA312"/>
</linearGradient>
<linearGradient id="paint4_linear_152_1814" x1="7.08329" y1="11.864" x2="6.95935" y2="3.15263" gradientUnits="userSpaceOnUse">
<stop offset="0.09" stop-color="#CC296B"/>
<stop offset="0.57" stop-color="#FF3387"/>
<stop offset="1" stop-color="#FF87B9"/>
</linearGradient>
</defs>
</svg>

<svg width="65" height="16" fill="none" xmlns="http://www.w3.org/2000/svg"><g style="mix-blend-mode:luminosity"><path d="M7 14A7 7 0 1 0 7 0a7 7 0 0 0 0 14z" fill="#fff"/><path fill-rule="evenodd" clip-rule="evenodd" d="M3.596 6.833c-.685-.731-.997-1.4-.76-1.805.256-.436 1.096-.465 2.186-.153.062-.353.145-.703.248-1.046-1.337-.328-2.402-.21-2.768.414-.371.633.062 1.639 1.028 2.66.021-.024.044-.047.066-.07z" fill="url(#paint0_linear_152_1814)"/><path opacity=".3" fill-rule="evenodd" clip-rule="evenodd" d="M5.023 4.875c.061-.354.144-.703.248-1.046a7.387 7.387 0 0 0-.425-.091c-.11.336-.2.678-.268 1.025.142.03.29.068.445.112zM3.53 6.902l.065-.07a6.866 6.866 0 0 1-.083-.09l-.069.067c.03.03.058.062.087.093z" fill="#231F20"/><path fill-rule="evenodd" clip-rule="evenodd" d="M9.736 7.656c.776.784 1.144 1.513.893 1.942-.228.386-.91.453-1.816.248-.01.037-.021.074-.033.11 1.328.323 2.385.203 2.75-.418.364-.621-.053-1.618-.998-2.627-.25.264-.516.513-.796.745z" fill="url(#paint1_linear_152_1814)"/><path opacity=".3" fill-rule="evenodd" clip-rule="evenodd" d="M8.813 9.847a3.08 3.08 0 0 1-.033.11l.041.01.033-.11-.041-.01zM10.533 6.91c-.25.265-.517.514-.797.746.094.095.182.189.263.282a8.59 8.59 0 0 0 .789-.74 6.914 6.914 0 0 0-.255-.287z" fill="#231F20"/><path fill-rule="evenodd" clip-rule="evenodd" d="M5.183 9.732v-.007l-.03-.118c0-.005-.002-.01-.003-.014l-.029-.12-.002-.007c-.04-.177-.076-.36-.108-.548-1.06.29-1.874.253-2.124-.176-.35-.602.512-1.786 2.009-2.884a9.17 9.17 0 0 1 .014-.145C3.032 7.07 1.982 8.673 2.497 9.558c.364.624 1.424.746 2.757.423a4.608 4.608 0 0 1-.07-.249z" fill="url(#paint2_linear_152_1814)"/><path opacity=".3" fill-rule="evenodd" clip-rule="evenodd" d="M5.183 9.732v-.006l-.03-.119-.003-.014a6.37 6.37 0 0 1-.029-.12l-.002-.007c-.04-.176-.076-.36-.108-.548a6.418 6.418 0 0 1-.448.106c.066.354.153.704.263 1.047.139-.025.28-.054.427-.09a7.065 7.065 0 0 1-.07-.249zM4.894 5.858a9.17 9.17 0 0 1 .014-.145c-.177.128-.346.257-.507.39l-.01.147a11.3 11.3 0 0 1 .503-.392z" fill="#231F20"/><path fill-rule="evenodd" clip-rule="evenodd" d="M11.538 4.286c-.365-.626-1.431-.747-2.771-.42l.026.091c.949-.225 1.665-.163 1.897.234.31.532-.328 1.52-1.514 2.5l.002.244v.191l-.001.1v.05c0 .033-.001.065-.003.096l-.002.05-.004.097-.002.046-.006.104-.002.036-.008.126v.014l-.025.289c1.876-1.358 2.928-2.964 2.413-3.848z" fill="url(#paint3_linear_152_1814)"/><path opacity=".3" fill-rule="evenodd" clip-rule="evenodd" d="M8.793 3.957l.042-.01a4.322 4.322 0 0 0-.028-.091.877.877 0 0 0-.04.01l.026.091zM9.24 6.637l-.065.054.002.245v.19c0 .033 0 .067-.002.1v.051c0 .032 0 .064-.003.096l-.002.05-.003.097-.003.045-.005.105-.003.036-.008.125v.014c-.007.097-.015.194-.024.29l.065-.05a11.765 11.765 0 0 0 .05-1.448z" fill="#231F20"/><path fill-rule="evenodd" clip-rule="evenodd" d="M7.013 1.702c-1.195 0-2.164 2.342-2.164 5.233 0 2.892.969 5.234 2.164 5.234 1.196 0 2.166-2.343 2.166-5.234 0-2.89-.97-5.233-2.166-5.233zm.509 9.782c-.855 0-1.548-2.023-1.548-4.517 0-2.495.693-4.517 1.548-4.517.855 0 1.547 2.022 1.547 4.517 0 2.494-.693 4.517-1.547 4.517z" fill="url(#paint4_linear_152_1814)"/></g><path d="M23.803 2.228c1.027 0 1.927.2 2.702.602a4.236 4.236 0 0 1 1.806 1.722c.43.737.644 1.596.644 2.576s-.215 1.839-.644 2.576a4.285 4.285 0 0 1-1.806 1.694c-.775.401-1.675.602-2.702.602h-3.416V2.228h3.416zm-.07 8.106c1.027 0 1.82-.28 2.38-.84.56-.56.84-1.349.84-2.366 0-1.017-.28-1.81-.84-2.38-.56-.579-1.353-.868-2.38-.868h-1.386v6.454h1.386zm13.9-2.38c0 .28-.02.532-.057.756h-5.67c.047.56.243.999.588 1.316.345.317.77.476 1.274.476.728 0 1.246-.313 1.554-.938h2.114a3.569 3.569 0 0 1-1.288 1.848c-.635.476-1.414.714-2.338.714-.747 0-1.419-.163-2.016-.49a3.606 3.606 0 0 1-1.386-1.414c-.327-.607-.49-1.307-.49-2.1 0-.803.163-1.507.49-2.114a3.419 3.419 0 0 1 1.372-1.4c.588-.327 1.265-.49 2.03-.49.737 0 1.395.159 1.974.476.588.317 1.04.77 1.358 1.358.327.579.49 1.246.49 2.002zm-2.03-.56c-.01-.504-.192-.905-.547-1.204-.355-.308-.789-.462-1.302-.462-.485 0-.896.15-1.232.448-.327.29-.527.695-.602 1.218h3.682zm10.586-2.142c0 .523-.126 1.013-.378 1.47-.243.457-.63.826-1.162 1.106-.523.28-1.186.42-1.988.42h-1.638V12h-1.96V2.228h3.598c.756 0 1.4.13 1.932.392.532.261.928.62 1.19 1.078.27.457.406.975.406 1.554zm-3.612 1.414c.541 0 .942-.121 1.204-.364.261-.252.392-.602.392-1.05 0-.952-.532-1.428-1.596-1.428h-1.554v2.842h1.554zm4.5 1.428c0-.784.153-1.48.461-2.086.318-.607.742-1.073 1.274-1.4a3.428 3.428 0 0 1 1.806-.49c.579 0 1.083.117 1.512.35.439.233.789.527 1.05.882V4.244h1.974V12H53.18v-1.134c-.252.364-.602.667-1.05.91-.438.233-.947.35-1.526.35-.653 0-1.25-.168-1.792-.504-.532-.336-.956-.807-1.274-1.414-.308-.616-.462-1.32-.462-2.114zm6.103.028c0-.476-.093-.882-.28-1.218a1.916 1.916 0 0 0-.756-.784 1.982 1.982 0 0 0-1.022-.28c-.364 0-.7.089-1.008.266a2.04 2.04 0 0 0-.756.784c-.186.336-.28.737-.28 1.204 0 .467.094.877.28 1.232.196.345.448.611.756.798.318.187.654.28 1.008.28.364 0 .705-.089 1.022-.266.318-.187.57-.448.756-.784.187-.345.28-.756.28-1.232zM64.49 4.244l-4.803 11.424H57.6l1.68-3.864-3.108-7.56h2.199l2.002 5.418 2.03-5.418h2.086z" fill="#fff"/><defs><linearGradient id="paint0_linear_152_1814" x1="1.802" y1="2.84" x2="8.996" y2="9.831" gradientUnits="userSpaceOnUse"><stop stop-color="#70A1D4"/><stop offset=".31" stop-color="#447FC2"/><stop offset=".66" stop-color="#3E74AF"/><stop offset="1" stop-color="#265281"/></linearGradient><linearGradient id="paint1_linear_152_1814" x1=".928" y1="1.26" x2="12.107" y2="10.447" gradientUnits="userSpaceOnUse"><stop stop-color="#70A1D4"/><stop offset=".31" stop-color="#447FC2"/><stop offset=".83" stop-color="#3E74AF"/><stop offset="1" stop-color="#265281"/></linearGradient><linearGradient id="paint2_linear_152_1814" x1="12.876" y1="3.442" x2="1.613" y2="9.806" gradientUnits="userSpaceOnUse"><stop offset=".07" stop-color="#FDE976"/><stop offset=".58" stop-color="#FFE73F"/><stop offset="1" stop-color="#BBA312"/></linearGradient><linearGradient id="paint3_linear_152_1814" x1="13.229" y1="2.216" x2="5.785" y2="8.857" gradientUnits="userSpaceOnUse"><stop offset=".31" stop-color="#FDE976"/><stop offset=".58" stop-color="#FFE73F"/><stop offset="1" stop-color="#BBA312"/></linearGradient><linearGradient id="paint4_linear_152_1814" x1="7.083" y1="11.864" x2="6.959" y2="3.153" gradientUnits="userSpaceOnUse"><stop offset=".09" stop-color="#CC296B"/><stop offset=".57" stop-color="#FF3387"/><stop offset="1" stop-color="#FF87B9"/></linearGradient></defs></svg>
